X:0478
T:Provance.
M:2/4
L:1/8
Q:1/4=124
I: :: ::
Z:Jack Campin * www.campin.me.uk * 2009
K:G
B/c/|dgdg |dcBc|dBcA |B/A/B/c/ BB/c/|dgdg |dcBc | dBcA                    |{c}B3  ::
B   |A>BcA|AdDB|A>BcB|AdDc          |B>cdc|B>cdc|(B/d/).B/.G/ (A/c/).A/.F/|   G2-G:|

